src/assets/icons/ghost.svg

<?xml version="1.0" encoding="UTF-8"?>
<svg width="24px" height="26px" viewBox="0 0 24 26" version="1.1" xmlns="http://www.w3.org/2000/svg" xmlns:xlink="http://www.w3.org/1999/xlink">
    <!-- Generator: Sketch 42 (36781) - http://www.bohemiancoding.com/sketch -->
    <title>report_ghost</title>
    <desc>Created with Sketch.</desc>
    <defs></defs>
    <g id="Report" stroke="none" stroke-width="1" fill="none" fill-rule="evenodd">
        <g id="MVP-1.1---Report-User" transform="translate(-876.000000, -590.000000)" fill="#000000">
            <g id="Overlay-Report-User" transform="translate(97.000000, 186.000000)">
                <path d="M800.867915,429.058683 C800.839842,429.058683 800.816532,429.057931 800.797482,429.056928 C799.780096,429.040386 799.280802,428.234046 798.949193,427.698408 C798.653928,427.221422 798.518577,427.051983 798.347133,427.051983 C798.175939,427.051983 798.040839,427.221422 797.745825,427.698408 C797.411208,428.23931 796.905147,429.057179 795.865954,429.057179 C794.82651,429.057179 794.320449,428.23931 793.985581,427.698408 C793.690316,427.221422 793.554965,427.051983 793.383772,427.051983 C793.213079,427.051983 793.077979,427.221422 792.782714,427.698158 C792.448097,428.23931 791.942036,429.057179 790.902843,429.057179 C789.8634,429.057179 789.35784,428.23931 789.022972,427.698158 C788.727957,427.221422 788.592857,427.051983 788.422165,427.051983 C788.251723,427.051983 788.116623,427.221422 787.821609,427.698158 C787.486741,428.23931 786.98093,429.057179 785.941738,429.057179 C784.902294,429.057179 784.396484,428.23931 784.061867,427.698158 C783.766601,427.221422 783.631501,427.051983 783.460558,427.051983 C783.290117,427.051983 783.155017,427.221422 782.860002,427.698158 C782.525134,428.23931 782.019324,429.057179 780.97988,429.057179 L780.979128,429.057179 C780.870347,429.057179 780.30814,429.030861 779.795561,428.518784 C779.267694,427.991167 779,427.160514 779,426.049385 L779,415.912618 C779,409.344098 784.340839,404 790.905851,404 C797.470612,404 802.811702,409.344098 802.811702,415.912618 L802.811702,426.049385 C802.811702,428.913808 801.192506,429.058683 800.867915,429.058683 Z M800.228007,426.906857 C800.523523,427.383843 800.658623,427.553282 800.829816,427.553282 C800.857388,427.553282 800.867163,427.55228 800.876437,427.55228 C801.027077,427.514181 801.307805,427.117904 801.307805,426.049385 L801.307805,415.912618 C801.307805,410.173246 796.641213,405.503897 790.905851,405.503897 C785.170239,405.503897 780.503897,410.173246 780.503897,415.912618 L780.503897,426.049385 C780.503897,426.997843 780.751789,427.348251 780.858566,427.454777 C780.898419,427.49463 780.978627,427.553282 780.978878,427.553282 C781.150823,427.553282 781.285923,427.383843 781.580938,426.907108 C781.915555,426.365956 782.421616,425.548086 783.460558,425.548086 C784.500002,425.548086 785.006063,426.365956 785.34043,426.907108 C785.635695,427.383843 785.770795,427.553282 785.941738,427.553282 C786.11243,427.553282 786.24753,427.383843 786.542294,426.907108 C786.877162,426.365956 787.382972,425.548086 788.422165,425.548086 C789.461609,425.548086 789.967169,426.365956 790.302036,426.907108 C790.597051,427.383843 790.732151,427.553282 790.902843,427.553282 C791.073786,427.553282 791.208886,427.383843 791.503901,426.907108 C791.838518,426.365956 792.344579,425.548086 793.383772,425.548086 C794.423466,425.548086 794.929277,426.365956 795.264144,426.906857 C795.559409,427.383843 795.69476,427.553282 795.865954,427.553282 C796.036646,427.553282 796.171746,427.383843 796.467011,426.907108 C796.801628,426.365956 797.30794,425.548086 798.347133,425.548086 C799.386827,425.548086 799.893139,426.365956 800.228007,426.906857 Z M795.853396,412.639211 C796.713375,412.639211 797.410681,413.336518 797.410681,414.196497 C797.410681,415.056475 796.713375,415.753782 795.853396,415.753782 C794.993418,415.753782 794.296111,415.056475 794.296111,414.196497 C794.296111,413.336518 794.993418,412.639211 795.853396,412.639211 Z M785.827416,412.639211 C786.687395,412.639211 787.384702,413.336518 787.384702,414.196497 C787.384702,415.056475 786.687395,415.753782 785.827416,415.753782 C784.967438,415.753782 784.270131,415.056475 784.270131,414.196497 C784.270131,413.336518 784.967438,412.639211 785.827416,412.639211 Z M792.534972,416.27408 C792.950299,416.27408 793.286921,416.610702 793.286921,417.026029 C793.286921,417.441355 792.950299,417.777977 792.534972,417.777977 L789.276529,417.777977 C788.861203,417.777977 788.52458,417.441355 788.52458,417.026029 C788.52458,416.610702 788.861203,416.27408 789.276529,416.27408 L792.534972,416.27408 Z" id="report_ghost"></path>
            </g>
        </g>
    </g>
</svg>

<svg width="24" height="26" viewBox="0 0 24 26" xmlns="http://www.w3.org/2000/svg"><g id="Report" fill="none" fill-rule="evenodd"><g id="MVP-1.1---Report-User" transform="translate(-876 -590)" fill="#000"><g id="Overlay-Report-User" transform="translate(97 186)"><path d="M800.868 429.059l-.07-.002c-1.018-.017-1.517-.823-1.849-1.359-.295-.477-.43-.646-.602-.646-.171 0-.306.17-.601.646-.335.541-.84 1.36-1.88 1.36s-1.546-.819-1.88-1.36c-.296-.477-.431-.646-.602-.646-.17 0-.306.17-.601.646-.335.541-.841 1.36-1.88 1.36-1.04 0-1.545-.819-1.88-1.36-.295-.477-.43-.646-.6-.646-.171 0-.306.17-.601.646-.335.541-.841 1.36-1.88 1.36-1.04 0-1.546-.819-1.88-1.36-.295-.477-.43-.646-.601-.646-.17 0-.306.17-.601.646-.335.541-.84 1.36-1.88 1.36-.11 0-.672-.027-1.184-.54-.528-.527-.796-1.357-.796-2.469v-10.136c0-6.569 5.34-11.913 11.906-11.913 6.565 0 11.906 5.344 11.906 11.913v10.136c0 2.865-1.62 3.01-1.944 3.01zm-.64-2.152c.296.477.43.646.602.646h.046c.151-.039.432-.435.432-1.504v-10.136c0-5.74-4.667-10.41-10.402-10.41-5.736 0-10.402 4.67-10.402 10.41v10.136c0 .949.248 1.3.355 1.406.04.04.12.098.12.098.172 0 .307-.17.602-.646.335-.541.84-1.359 1.88-1.359 1.039 0 1.545.818 1.88 1.36.295.476.43.645.6.645.171 0 .307-.17.601-.646.335-.541.841-1.359 1.88-1.359 1.04 0 1.545.818 1.88 1.36.295.476.43.645.6.645.172 0 .307-.17.602-.646.335-.541.84-1.359 1.88-1.359s1.545.818 1.88 1.359c.295.477.43.646.602.646.17 0 .306-.17.601-.646.335-.541.84-1.359 1.88-1.359s1.546.818 1.881 1.359zm-4.375-14.268a1.557 1.557 0 1 1 0 3.115 1.557 1.557 0 0 1 0-3.115zm-10.026 0a1.557 1.557 0 1 1 0 3.115 1.557 1.557 0 0 1 0-3.115zm6.708 3.635a.752.752 0 1 1 0 1.504h-3.258a.752.752 0 1 1 0-1.504h3.258z" id="report_ghost"/></g></g></g></svg>
